X:52
T:Reel 52
M:4/4
K:Amin
L:1/8
A,B,|CA,B,G, E,A,A,B,|CG,DG, EG,DG,|CA,A,G, E,G,A,B,|CA,B,G, A,2:|DB,|A,B,CD EDED|EG^FG DCB,G,|A,B,CD EDED|CA,B,G, A,G,E,2|A,B,CD EFED|CDCB, A,G,E,G,|A,B,CD EDED|EAA,B, A,2|
